assets/img/braze_icons/calendar-plus-01.svg

<svg fill="none" height="24" viewBox="0 0 24 24" width="24" xmlns="http://www.w3.org/2000/svg"><path clip-rule="evenodd" d="m17 2c0-.55228-.4477-1-1-1s-1 .44772-1 1v1h-6v-1c0-.55228-.44771-1-1-1-.55228 0-1 .44772-1 1v1.00163c-.47546.00326-.89102.01309-1.25182.04256-.5621.04593-1.0788.14449-1.56414.39178-.75265.3835-1.36457.99542-1.74806 1.74807-.2473.48533-.34586 1.00204-.39178 1.56413-.04422.54119-.04421 1.20556-.0442 2.01052v8.48261c-.00001.805-.00002 1.4693.0442 2.0105.04592.5621.14448 1.0788.39178 1.5642.38349.7526.99541 1.3645 1.74806 1.748.48534.2473 1.00204.3459 1.56414.3918.54119.0442 1.20554.0442 2.0105.0442h8.48262c.805 0 1.4693 0 2.0105-.0442.5621-.0459 1.0788-.1445 1.5642-.3918.7526-.3835 1.3645-.9954 1.748-1.748.2473-.4854.3459-1.0021.3918-1.5642.0442-.5412.0442-1.2055.0442-2.0105v-8.48262c0-.80496 0-1.46932-.0442-2.01051-.0459-.56209-.1445-1.0788-.3918-1.56413-.3835-.75265-.9954-1.36457-1.748-1.74807-.4854-.24729-1.0021-.34585-1.5642-.39178-.3608-.02947-.7763-.0393-1.2518-.04256zm-10 4v-.99824c-.44553.00313-.79537.01181-1.08896.03579-.43842.03582-.66262.10075-.81902.18044-.37632.19174-.68228.49771-.87403.87403-.07969.1564-.14462.3806-.18044.81902-.03677.45009-.03755 1.03238-.03755 1.88896v.2h16v-.2c0-.85658-.0008-1.43887-.0376-1.88896-.0358-.43842-.1007-.66262-.1804-.81902-.1917-.37632-.4977-.68229-.874-.87403-.1564-.07969-.3806-.14462-.819-.18044-.2936-.02398-.6435-.03266-1.089-.03579v.99824c0 .55228-.4477 1-1 1s-1-.44772-1-1v-1h-6v1c0 .55228-.44771 1-1 1-.55228 0-1-.44772-1-1zm5 6c.5523 0 1 .4477 1 1v2h2c.5523 0 1 .4477 1 1s-.4477 1-1 1h-2v2c0 .5523-.4477 1-1 1s-1-.4477-1-1v-2h-2c-.55228 0-1-.4477-1-1s.44772-1 1-1h2v-2c0-.5523.4477-1 1-1z" fill="#801ed7" fill-rule="evenodd"/></svg>

<svg width="24" height="24" viewBox="0 0 24 24" fill="none" xmlns="http://www.w3.org/2000/svg">
<path fill-rule="evenodd" clip-rule="evenodd" d="M17 2C17 1.44772 16.5523 1 16 1C15.4477 1 15 1.44772 15 2V3H9V2C9 1.44772 8.55229 1 8 1C7.44772 1 7 1.44772 7 2V3.00163C6.52454 3.00489 6.10898 3.01472 5.74818 3.04419C5.18608 3.09012 4.66938 3.18868 4.18404 3.43597C3.43139 3.81947 2.81947 4.43139 2.43598 5.18404C2.18868 5.66937 2.09012 6.18608 2.0442 6.74817C1.99998 7.28936 1.99999 7.95373 2 8.75869V17.2413C1.99999 18.0463 1.99998 18.7106 2.0442 19.2518C2.09012 19.8139 2.18868 20.3306 2.43598 20.816C2.81947 21.5686 3.43139 22.1805 4.18404 22.564C4.66938 22.8113 5.18608 22.9099 5.74818 22.9558C6.28937 23 6.95372 23 7.75868 23H16.2413C17.0463 23 17.7106 23 18.2518 22.9558C18.8139 22.9099 19.3306 22.8113 19.816 22.564C20.5686 22.1805 21.1805 21.5686 21.564 20.816C21.8113 20.3306 21.9099 19.8139 21.9558 19.2518C22 18.7106 22 18.0463 22 17.2413V8.75868C22 7.95372 22 7.28936 21.9558 6.74817C21.9099 6.18608 21.8113 5.66937 21.564 5.18404C21.1805 4.43139 20.5686 3.81947 19.816 3.43597C19.3306 3.18868 18.8139 3.09012 18.2518 3.04419C17.891 3.01472 17.4755 3.00489 17 3.00163V2ZM7 6V5.00176C6.55447 5.00489 6.20463 5.01357 5.91104 5.03755C5.47262 5.07337 5.24842 5.1383 5.09202 5.21799C4.7157 5.40973 4.40974 5.7157 4.21799 6.09202C4.1383 6.24842 4.07337 6.47262 4.03755 6.91104C4.00078 7.36113 4 7.94342 4 8.8V9H20V8.8C20 7.94342 19.9992 7.36113 19.9624 6.91104C19.9266 6.47262 19.8617 6.24842 19.782 6.09202C19.5903 5.7157 19.2843 5.40973 18.908 5.21799C18.7516 5.1383 18.5274 5.07337 18.089 5.03755C17.7954 5.01357 17.4455 5.00489 17 5.00176V6C17 6.55228 16.5523 7 16 7C15.4477 7 15 6.55228 15 6V5H9V6C9 6.55228 8.55229 7 8 7C7.44772 7 7 6.55228 7 6ZM12 12C12.5523 12 13 12.4477 13 13V15H15C15.5523 15 16 15.4477 16 16C16 16.5523 15.5523 17 15 17H13V19C13 19.5523 12.5523 20 12 20C11.4477 20 11 19.5523 11 19V17H9C8.44772 17 8 16.5523 8 16C8 15.4477 8.44772 15 9 15H11V13C11 12.4477 11.4477 12 12 12Z" fill="#801ED7"/>
</svg>
